Obsidian-SemiLight/actions/24s/stroke-cap-butt.svg

<svg viewBox="0 0 24 24" xmlns="http://www.w3.org/2000/svg"><path d="m10 5v1h-2-1v1 13h1 3v-1-13h2v14h1 3v-1-13h-3v-1zm-2 2h2v12h-2zm6 0h2v12h-2z" fill="#4d4d4d"/></svg>

<svg xmlns="http://www.w3.org/2000/svg" viewBox="0 0 24 24">
  <defs id="defs3051">
    <style type="text/css" id="current-color-scheme">
      .ColorScheme-Text {
        color:#4d4d4d;
      }
      </style>
  </defs>
 <path style="fill:currentColor;fill-opacity:1;stroke:none" 
     d="M 10 5 L 10 6 L 8 6 L 7 6 L 7 7 L 7 20 L 8 20 L 11 20 L 11 19 L 11 6 L 13 6 L 13 20 L 14 20 L 17 20 L 17 19 L 17 6 L 14 6 L 14 5 L 10 5 z M 8 7 L 10 7 L 10 19 L 8 19 L 8 7 z M 14 7 L 16 7 L 16 19 L 14 19 L 14 7 z "
     class="ColorScheme-Text"
     />
</svg>
